src/icons/qr-code.svg

<svg viewBox="0 0 24 24" fill="none" xmlns="http://www.w3.org/2000/svg">
<path d="M19.0059 7.61524V5H16.3906V7.61524H19.0059Z" fill="currentColor"/>
<path fill-rule="evenodd" clip-rule="evenodd" d="M21.7883 2.28162L21.8626 2.20727L21.7919 2.13656L21.7176 2.21091C21.5006 2.01162 21.2163 1.90039 20.9205 1.90039H14.4155C14.103 1.90039 13.8033 2.02453 13.5823 2.24551C13.3613 2.46649 13.2372 2.7662 13.2372 3.07871V9.58372C13.2372 9.89623 13.3613 10.1959 13.5823 10.4169C13.8033 10.6379 14.103 10.762 14.4155 10.762H20.9205C21.233 10.762 21.5327 10.6379 21.7537 10.4169C21.9747 10.1959 22.0988 9.89623 22.0988 9.58372V3.07871C22.0988 2.7829 21.9876 2.49857 21.7883 2.28162ZM20.6715 9.33469V3.32774H14.6645V9.33469H20.6715Z" fill="currentColor"/>
<path d="M7.61524 5V7.61524H5V5H7.61524Z" fill="currentColor"/>
<path fill-rule="evenodd" clip-rule="evenodd" d="M9.58323 10.712H3.07822C2.77897 10.712 2.49198 10.5932 2.28038 10.3816C2.06878 10.17 1.9499 9.88297 1.9499 9.58372V3.07871C1.9499 2.77946 2.06878 2.49247 2.28038 2.28087C2.49198 2.06927 2.77897 1.95039 3.07822 1.95039H9.58323C9.88248 1.95039 10.1695 2.06927 10.3811 2.28087C10.5927 2.49247 10.7116 2.77946 10.7116 3.07871V9.58372C10.7116 9.88297 10.5927 10.17 10.3811 10.3816C10.1695 10.5932 9.88248 10.712 9.58323 10.712ZM9.3842 9.38469V3.27774H3.27725V9.38469H9.3842Z" fill="currentColor"/>
<path d="M19.0766 19.0777V16.2624H16.2614V19.0777H19.0766Z" fill="currentColor"/>
<path d="M19.2831 19.2852H22.0983V21.4486C22.0983 21.6215 22.0297 21.7873 21.9074 21.9095C21.7852 22.0317 21.6194 22.1004 21.4466 22.1004H19.2831V19.2852Z" fill="currentColor"/>
<path d="M16.0529 22.1004L16.0532 19.2858L13.2377 19.2852V21.4486C13.2377 21.6215 13.3063 21.7873 13.4286 21.9095C13.5508 22.0317 13.7166 22.1004 13.8894 22.1004H16.0529Z" fill="currentColor"/>
<path d="M19.2831 16.0529V13.2377H21.4466C21.6194 13.2377 21.7852 13.3063 21.9074 13.4286C22.0297 13.5508 22.0983 13.7166 22.0983 13.8894V16.0529H19.2831Z" fill="currentColor"/>
<path d="M13.2377 16.0529H16.0529V13.2377H13.8894C13.7166 13.2377 13.5508 13.3063 13.4286 13.4286C13.3063 13.5508 13.2377 13.7166 13.2377 13.8894V16.0529Z" fill="currentColor"/>
<path d="M7.61524 16.3604V18.9756H5V16.3604H7.61524Z" fill="currentColor"/>
<path fill-rule="evenodd" clip-rule="evenodd" d="M2.24551 13.5833C2.46649 13.3623 2.7662 13.2382 3.07871 13.2382H9.58372C9.89623 13.2382 10.1959 13.3623 10.4169 13.5833C10.6379 13.8043 10.762 14.104 10.762 14.4165V20.9215C10.762 21.234 10.6379 21.5337 10.4169 21.7547C10.1959 21.9757 9.89623 22.0998 9.58372 22.0998H3.07871C2.7662 22.0998 2.46649 21.9757 2.24551 21.7547C2.02453 21.5337 1.90039 21.234 1.90039 20.9215V14.4165C1.90039 14.104 2.02453 13.8043 2.24551 13.5833ZM9.33469 14.6655H3.32774V20.6725H9.33469V14.6655Z" fill="currentColor"/>
</svg>

<svg viewBox="0 0 24 24" fill="none" xmlns="http://www.w3.org/2000/svg"><path d="M19.006 7.615V5H16.39v2.615h2.615z" fill="currentColor"/><path fill-rule="evenodd" clip-rule="evenodd" d="m21.788 2.282.075-.075-.071-.07-.074.074c-.217-.2-.502-.31-.797-.31h-6.505a1.178 1.178 0 0 0-1.179 1.178v6.505a1.178 1.178 0 0 0 1.178 1.178h6.506a1.178 1.178 0 0 0 1.178-1.178V3.079c0-.296-.111-.58-.31-.797zm-1.116 7.053V3.328h-6.008v6.007h6.008z" fill="currentColor"/><path d="M7.615 5v2.615H5V5h2.615z" fill="currentColor"/><path fill-rule="evenodd" clip-rule="evenodd" d="M9.583 10.712H3.078A1.128 1.128 0 0 1 1.95 9.584V3.079A1.128 1.128 0 0 1 3.078 1.95h6.505a1.128 1.128 0 0 1 1.129 1.129v6.505a1.128 1.128 0 0 1-1.129 1.128zm-.199-1.327V3.278H3.277v6.107h6.107z" fill="currentColor"/><path d="M19.077 19.078v-2.816H16.26v2.816h2.816zM19.283 19.285h2.815v2.164a.651.651 0 0 1-.651.651h-2.164v-2.815zM16.053 22.1v-2.814h-2.815v2.163a.651.651 0 0 0 .651.651h2.164zM19.283 16.053v-2.815h2.164a.651.651 0 0 1 .651.651v2.164h-2.815zM13.238 16.053h2.815v-2.815h-2.164a.651.651 0 0 0-.651.651v2.164zM7.615 16.36v2.616H5V16.36h2.615z" fill="currentColor"/><path fill-rule="evenodd" clip-rule="evenodd" d="M2.246 13.583c.22-.22.52-.345.833-.345h6.505a1.178 1.178 0 0 1 1.178 1.178v6.506A1.178 1.178 0 0 1 9.584 22.1H3.079A1.178 1.178 0 0 1 1.9 20.922v-6.506c0-.312.125-.612.346-.833zm7.089 1.082H3.328v6.008h6.007v-6.007z" fill="currentColor"/></svg>
